assets/img/braze_icons/disc-02.svg

<svg fill="none" height="24" viewBox="0 0 24 24" width="24" xmlns="http://www.w3.org/2000/svg"><path clip-rule="evenodd" d="m1 12c0-6.07513 4.92487-11 11-11 6.0751 0 11 4.92487 11 11 0 6.0751-4.9249 11-11 11-6.07513 0-11-4.9249-11-11zm11 3c1.6569 0 3-1.3431 3-3s-1.3431-3-3-3-3 1.3431-3 3 1.3431 3 3 3zm3.4291-10.22969c-.4989-.23698-1.0954-.02469-1.3324.47417-.2369.49886-.0246 1.09537.4742 1.33235 2.0294.96408 3.4291 3.03113 3.4291 5.42307 0 .5523.4477 1 1 1s1-.4477 1-1c0-3.19277-1.8704-5.94673-4.5709-7.22959zm-9.4291 7.22959c0-.5523-.44772-1-1-1s-1 .4477-1 1c0 2.9113 1.55568 5.4582 3.87631 6.8565.47304.2851 1.08759.1326 1.37263-.3404s.13263-1.0876-.34042-1.3726c-1.74504-1.0515-2.90852-2.9621-2.90852-5.1435z" fill="#801ed7" fill-rule="evenodd"/></svg>

<svg width="24" height="24" viewBox="0 0 24 24" fill="none" xmlns="http://www.w3.org/2000/svg">
<path fill-rule="evenodd" clip-rule="evenodd" d="M1 12C1 5.92487 5.92487 1 12 1C18.0751 1 23 5.92487 23 12C23 18.0751 18.0751 23 12 23C5.92487 23 1 18.0751 1 12ZM12 15C13.6569 15 15 13.6569 15 12C15 10.3431 13.6569 9 12 9C10.3431 9 9 10.3431 9 12C9 13.6569 10.3431 15 12 15ZM15.4291 4.77031C14.9302 4.53333 14.3337 4.74562 14.0967 5.24448C13.8598 5.74334 14.0721 6.33985 14.5709 6.57683C16.6003 7.54091 18 9.60796 18 11.9999C18 12.5522 18.4477 12.9999 19 12.9999C19.5523 12.9999 20 12.5522 20 11.9999C20 8.80713 18.1296 6.05317 15.4291 4.77031ZM6 11.9999C6 11.4476 5.55228 10.9999 5 10.9999C4.44772 10.9999 4 11.4476 4 11.9999C4 14.9112 5.55568 17.4581 7.87631 18.8564C8.34935 19.1415 8.9639 18.989 9.24894 18.516C9.53398 18.043 9.38157 17.4284 8.90852 17.1434C7.16348 16.0919 6 14.1813 6 11.9999Z" fill="#801ED7"/>
</svg>
